!!!COA:	Josquin des Prez
!!!CDT:	~1450-1521/08/27
!!!COA2: Compere
!!!COA3: Ninot le Petit
!!!OTL@@FRE: Lourdault, Lourdault
!!!AGN:	Chanson
!!!SCT:	NJE 28.24
!!!SCA:	New Josquin Edition 28.24
!!!voices:	4
**kern	**kern	**kern	**kern
*staff4	*staff3	*staff2	*staff1
*Ivox	*Ivox	*Ivox	*Ivox
*I"Bassus	*I"Tenor	*I"Altus	*I"Superius
*I'B	*I'T	*I'A	*I'S
*clefF4	*clefGv2	*clefGv2	*clefG2
*k[b-]	*k[b-]	*k[b-]	*k[b-]
*M2/1	*M2/1	*M2/1	*M2/1
*met(C|)	*met(C|)	*met(C|)	*met(C|)
=1-	=1-	=1-	=1-
0r	1r	0r	0r
.	1A	.	.
=2	=2	=2	=2
1r	1.B-	0r	0r
1D	.	.	.
.	2A/	.	.
=3	=3	=3	=3
1.E-	1G	0r	0r
.	1B-	.	.
2D\	.	.	.
=4	=4	=4	=4
1C	1.c	0r	0r
1E-	.	.	.
.	8c/L	.	.
.	8B-/	.	.
.	8A/	.	.
.	8G/J	.	.
=5	=5	=5	=5
1.F	0F	0r	0r
8F\L	.	.	.
8E-i\	.	.	.
8D\	.	.	.
8C\J	.	.	.
=6	=6	=6	=6
1BB-	1r	0r	0r
2r	1B-	.	.
2BB-/	.	.	.
=7	=7	=7	=7
2C/	1A	0r	0r
2D\	.	.	.
2BB-/	1G	.	.
[2C/	.	.	.
=8	=8	=8	=8
4C/]	1G	0r	1r
4BB-/	.	.	.
2GG/	.	.	.
1AA	1F#i	.	1a
=9	=9	=9	=9
0GG	0G	1r	1.b-
.	.	1d	.
.	.	.	2a/
=10	=10	=10	=10
0r	0r	1.e-i	1g
.	.	.	1b-
.	.	2d\	.
=11	=11	=11	=11
0r	0r	1c	1.cc
.	.	1e-i	.
.	.	.	8cc/L
.	.	.	8b-/
.	.	.	8a/
.	.	.	8g/J
=12	=12	=12	=12
0r	0r	1.f	0f
.	.	8f\L	.
.	.	8e-i\	.
.	.	8d\	.
.	.	8c\J	.
=13	=13	=13	=13
0G	2r	1B-	1r
.	1d	.	.
.	.	1r	1b-
.	2B-\	.	.
=14	=14	=14	=14
2F\	2c\	1f	1a
2D\	2d\	.	.
2E-i\	2B-\	2e-i\	1g
2C/	[2c\	2e-i\	.
=15	=15	=15	=15
1E-i	4c\]	2c\	1g
.	4B-\	.	.
.	2G/	2c\	.
1D	1A	[1d	1f#i
=16	=16	=16	=16
1r	0G	2d\]	0g
.	.	2.B-\	.
1GG	.	.	.
.	.	4c\	.
.	.	[2d\	.
=17	=17	=17	=17
1BB-	0r	2d\]	0r
.	.	4c\	.
.	.	4B-\	.
1AA	.	4c\	.
.	.	4B-\	.
.	.	4A/	.
.	.	4G/	.
=18	=18	=18	=18
1BB-	1r	2F/	0r
.	.	2G/	.
1C	1G	1E	.
=19	=19	=19	=19
1D	1B-	1F	0r
2D\	1A	2r	.
2D\	.	[2F/	.
=20	=20	=20	=20
2D\	1B-	4F/]	1r
.	.	4D/	.
2D\	.	1F	.
2C/	1c	.	1g
2C/	.	2E/	.
=21	=21	=21	=21
1BB-	1d	0F	1b-
2r	2d\	.	1a
[2D\	2d\	.	.
=22	=22	=22	=22
4D\]	2d\	2r	1b-
4C/	.	.	.
1BB-	2d\	2F/	.
.	2c\	2G/	1cc
2AA/	2c\	2A/	.
=23	=23	=23	=23
1BB-	0B-	1F	1dd
2r	.	2G/	2dd\
[2BB-/	.	[2F/	2dd\
=24	=24	=24	=24
4BB-/]	2r	2F/]	2dd\
4C/	.	.	.
4D\	1B-	2.f\	2dd\
4E\	.	.	.
2F\	.	.	2cc\
.	.	4e\	.
2F\	2A/	2f\	2cc\
=25	=25	=25	=25
2G\	2B-\	2d\	2b-\
4F\	2c\	2A/	4a/
4E\	.	.	4g/
2D\	2d\	2B-\	2f/
2C/	2e-i\	2c\	[2cc\
=26	=26	=26	=26
1G	2d\	2d\	4cc\]
.	.	.	4b-\
.	2B-\	2e\	1b-
1F	1c	1f	.
.	.	.	2a/
=27	=27	=27	=27
2D\	1B-	2f\	0b-
1E-i	.	1g	.
.	1r	.	.
4D\	.	4f\	.
4C/	.	4e\	.
=28	=28	=28	=28
1BB-	1d	1f	1r
1GG	[1d	1g	1dd
=29	=29	=29	=29
2r	2d\]	1r	1.dd
2G\	2c\	.	.
[1G	2B-\	1g	.
.	2A/	.	2cc\
=30	=30	=30	=30
2G\]	1G	1.g	2b-\
2F\	.	.	2a/
2E\	1G	.	1g
2D\	.	2f\	.
=31	=31	=31	=31
1C	1G	2e\	1g
.	.	2d\	.
1C	[1c	1c	1g
=32	=32	=32	=32
1C	2c\]	1c	1.cc
.	2B-\	.	.
[1F	2A/	1c	.
.	2G/	.	2b-\
=33	=33	=33	=33
2F\]	0F	1.f	2a/
2E\	.	.	2g/
2D\	.	.	[1f
2C/	.	2e\	.
=34	=34	=34	=34
1BB-	1r	2d\	1f]
.	.	2c\	.
1BB-	1d	2B-\	1f
.	.	2B-\	.
=35	=35	=35	=35
0BB-;	0d;	0f;	0b-;
=36	=36	=36	=36
0r	1B-	0r	1r
.	[1B-	.	1b-
=37	=37	=37	=37
1E-i	2B-\]	1r	1.b-
.	2B-\	.	.
[1E-i	[1G	1e-i	.
.	.	.	2b-\
=38	=38	=38	=38
2E-\]	2G/]	1.e-i	1.g
2E-i\	4A/	.	.
.	4B-\	.	.
[1C	[1c	.	.
.	.	2e-\	4a/
.	.	.	4b-\
=39	=39	=39	=39
2C/]	2c\]	1.c	1.cc
4D\	8c/L	.	.
.	8B-/	.	.
4E-i\	8A/	.	.
.	8G/J	.	.
[1F	1F	.	.
.	.	4d\	8cc/L
.	.	.	8b-/
.	.	4e-i\	8a/
.	.	.	8g/J
=40	=40	=40	=40
2F\]	1r	1.f	0f
8F\L	.	.	.
8E-i\	.	.	.
8D\	.	.	.
8C\J	.	.	.
1BB-	2.B-\	.	.
.	.	8f\L	.
.	.	8e-i\	.
.	4c\	8d\	.
.	.	8c\J	.
=41	=41	=41	=41
1GG	4d\	1B-	1r
.	4e-i\	.	.
.	1d	.	.
2r	.	2r	1b-
[2G\	2B-\	2d\	.
=42	=42	=42	=42
2G\]	2c\	2e\	1a
2F\	2d\	2f\	.
2G\	2B-\	2d\	1g
[2C/	[2c\	[2e-i\	.
=43	=43	=43	=43
4C/]	4c\]	2e-\]	1g
4D\	4B-\	.	.
2E-i\	2G/	4d\	.
.	.	4c\	.
1D	1A	[1d	1f#i
=44	=44	=44	=44
1r	0G	1d]	0g
2.E-i\	.	2r	.
.	.	2B-\	.
4D\	.	.	.
=45	=45	=45	=45
2C/	0r	2A/	0r
2BB-/	.	2G/	.
1AA	.	2G/	.
.	.	2F#i/	.
=46	=46	=46	=46
2GG/	2r	2G/	0r
2.D\	2B-\	2.F/	.
.	2A/	.	.
4C/	.	4E/	.
2BB-/	2G/	[2D/	.
=47	=47	=47	=47
1AA	2G/	2D/]	1r
.	2F/	2C/	.
1GG	2G/	1D	2r
.	2d\	.	2b-\
=48	=48	=48	=48
2AA/	2c\	2r	2a/
2BB-/	2B-\	2d\	2g/
2C/	2A/	2e\	2g/
2D\	2A/	[2d\	2f/
=49	=49	=49	=49
1GG	2.G/	4d\]	1.b-
.	.	4c\	.
.	.	4B-\	.
.	4A/	4A/	.
2r	4B-\	2G/	.
.	4c\	.	.
2G\	[2d\	2B-\	2b-\
=50	=50	=50	=50
2F\	2d\]	2c\	2a/
2E\	2c\	2G/	2g/
1D	1d	1A	2g/
.	.	.	2f/
=51	=51	=51	=51
1.G	2r	2.G/	1.b-
.	1d	.	.
.	.	4A/	.
.	.	4B-\	.
.	.	4c\	.
2G\	2B-\	4d\	2b-\
.	.	4e\	.
=52	=52	=52	=52
2F\	2c\	1f	2a/
2D\	2d\	.	2a/
2E-i\	2B-\	2r	2g/
2C/	2c\	2e-i\	[2g/
=53	=53	=53	=53
1E-i	1G	1c	2g/]
.	.	.	4f/
.	.	.	4e/
1D	1A	1d	2g/
.	.	.	2f#i/
=54	=54	=54	=54
[0GGl	[0Gl	0d	[0gl
=55	=55	=55	=55
0GG]	0G]	0dl	0g]
==	==	==	==
*-	*-	*-	*-
!!!RDF**kern: l=long note in original notation
!!!RDF**kern: i=editorial accidental
!!!ENC:	Will Watson 23/10/2011
!!!END:	2011/10/23/
!!!EED:	Jesse Rodin
!!!EEV:	2011/12/16/
!!attribution-level@Jos: 6 (very doubtful)
!!!ONB:	Translated from MusicXML and edited on 2011/12/16/ by Craig Sapp
!!muse2ps: C^@{COA}?\n@{SCT}^i2I150v90,90,90,150Q16
